X: 1
T: the Trip to Pakistan #2   [Em]
C: Niall Kenny
D: The Tannahill Weavers
Z: 2014 John Chambers <jc:trillian.mit.edu> (plus added chords)
S: page in Concord Slow Scottish Session collection
R: Reel
L: 1/8
M: 4/4
K: Em
|: "Em"EGBE G3B | "D"A2AB AGFG | "Em"EGBE G3B | "D"AGFG "Em"E4 :|
|: "Em"EGBG "Am"c3A | "G"B2Bd "D"AGFG | "Em"EGBG "Am"c3A | "G"BAGB "D"A2d2 :|
|: "Em"FGBF GBFG | "C"EFGE FGEF | "D"DFAD FADF | "D"AGFG "Em"E4   :|

%%sep 1 1 500

